X:544
T:Thoughts of Bobby MacLeod 
C:Joe Buchanan's Scottish Tome - Page 078.0
I:078 0
C:Ian Holmes (5-8-93)
R:Reel
Z:Carl Allison
L:1/8
M:12/8
K:D
f | "D"A>AA A>BG A3 d3 | f2 a "D7"a>fd "G"B3 G3 |
"A7"A>AA c2 d "Em"e<gf e>dB | "A7"cA>a g>fe "D"f3 f2 a |
"D"A>AA A>BG A3 d2 e | f2 a "D7"a>fd "G"B3 G2 B |
"A7"A>AA c2 d egf e>dB | cAa g>ec "D"d3 dAd |]
"D"f3 afd A3 A>Bd | f2 a "D7"a>fd "G"B3 G2 B |
"A7"A>AA c2 d "Em7"e<gf e>dB | "A7"cAa gfe "D"f3 f>Ad |
"D"f3 a>fd A3 A>Bd | f2 a "A7"a>fd "G"B3 G2 B |
"A7"A>AA c2 d "Em"e<gf e>dB | "A7"c<Aa g>ec "D"d3 d2 f |]
"D"A2 d "G"B>AG "D"A3 d2 e | f2 a "D7"f>ef "G"g>Gd B>AG |
"A7"A2 c A2 c "Em"e<gf e>dB | "A7"c<Aa g>fe "D"f3 f2 a |
""A2 d "G"B>AG "D"A3 d2 e | f<ag "D7"f>ef "G"gGd B>AG |
"A7"A2 c A>ce "Em"e<gf e>dB | "A7"c<Aa g>ec "D"d3 d>fg |]
"D"aAa a2 g f<aA "D7"f>ed | "G"B>GB B2 d B<Gd B>AG |
"A7"A>AA c2 d "Em"e<gf e>dB | "A7"c<Aa g>fe "D"f3 f2 g |
"D"aAa a2 g "Em"f<aA "D7"f>ed | "G"B<GB d>ef g>Gd B>AG |
"A7"A2 c A>ce "Em"e<gf e>dB | "A7"c>Aa g>ec d2 |]

